X:1
T:LE PAS DU SERPENT
T:LE PAS DU SERPENT
T:EL BAILE DE LA SERPIENTE
T:Enrique ARENAS
T:DANSE NOUVELLE
T:SCHLANGEN TANZ                                                              SERPENT DANCE
T: (Genre de One step et Rag time) 
T: A Monsieur Robert VIEL. 
T:C. P. 374.
T:C. P. 374.
C:Enrique ARESAS
Z:DANSE NOUVELLE
Z:C. P. 374.
%%score { ( 1 3 ) | 2 }
L:1/8
Q:1/4=90
M:2/4
K:G
V:1 treble nm="Piano" snm="Pno."
V:3 treble 
V:2 bass 
V:1
"^Mouvṭ de one step."!f!!>(! (3!>!d^c=c!>)!!<(! (3Bc^c | (3!>!d!<)!!>(!^c=c!>)!!<(! (3Bc^c!<)! | %2
!f! (3!>!d_ed (3ede | (3!>!d_ed (3ede | !>!d z!f!{ab^c'} d' z |{AB^c} !>!d z{A,B,^C} !>!D z | %6
 z .[B,DG]z.[B,DG] | z .[B,DG]z.[B,DG] ||!mf!"^Allegretto." z .[dgb].[dg^a].[dgb] | %9
 !>!.[dgd'].[dgb].[Bda].[Bdg] | [Aea] !>![Ae]2 [^ceb] |!<(! !>![^cea]4!<)! | %12
!f! z!mf! .[=ca].[c^g].[ca] | !>!.[cc'].[ca].[cf].[ce] | [Be] !>![Bd]2 [Bdg] |!<(! !>![dgb]4!<)! | %16
!f! z!mf! .[dgb].[dg^a].[dgb] | !>![e^gd'].b.a.^g | [de] !>![deb]2 [dec'] |!<(! !>![cea]4!<)! | %20
!f!!<(! z!mf! !>!d!>!e!>![df] | !>![dg]!>![da]!>![dgb]!>![cgc']!<)! | %22
!f! !arpeggio!!>![Bgd'] !>![Bdg]2 !>![cda] | !>![Bdg]2 !>![AB^df]2 |:!f! z .[GBe]z.[GBe] | %25
 z .[AB^d]/.[ABd]/ .[ABd] z | z .[AB^d]z.[ABd] | z .[GBe]z.[GBe] | z .[GBe]z.[GBe] | %29
 z .[Ace]/.[Ace]/ .[Ace] z | z .[AB^d] z .[ABd] |1 !>![GBe]2 !>![B^db]2 :|2 !>![GBe]2 !>![c=df]2 || %33
!mf! z .[dgb].[dg^a].[dgb] | !>!.[dgd'].[dgb].[Bda].[Bdg] | [Aea] !>![Ae]2 [^ceb] | %36
!<(! !>![^cea]4!<)! |!f! z!mf! .[=ca].[c^g].[ca] | !>!.[cc'].[ca].[cf].[ce] | [Be] !>![Bd]2 [Bdg] | %40
!<(! !>![dgb]4!<)! |!f! z!mf! .[dgb].[dg^a].[dgb] | !>![e^gd'].b.a.^g | [de] !>![deb]2 [dec'] | %44
!<(! !>![cea]4!<)! |!f!!<(! z!mf! !>!d!>!e!>![df] | !>![dg]!>![da]!>![dgb]!>![cgc']!<)! | %47
!f! !arpeggio!!>![Bgd'] !>![Bdg]2 !>![cda] | .[Bdg] z!ff! .[gbd'g']"^FIN." z!fine! || %49
[K:C]!f! z!>(! [G,CE]z[G,CE] | z [G,CE]z[G,CE]!>)! |!f! z!>(! [G,CE]z[G,CE] | z [G,CE]z[G,CE]!>)! | %53
!mf! z .!^![cc'].[Bb].[Aa] | .[Gg].[Ee].[Dd].[Cc] | .[FA] !>![Fc]2 .[FA] | [Ec]2 [EG]2 | %57
!mf! z .!^![cc'].[Bb].[Aa] | .[Gg].[Ee].[Dd].[Cc] | .[FA] !>![Fc]2 .[FA] |!<(! !>![FGB]4!<)! | %61
!f! .[GBf] !>!.[GBe]2 .[GBd] | .[GB^c].[GBd] !>![GBg]2 | .[EGe] !>!.[EGd]2 .[EG=c] | %64
 .[EGB].[EGc] !>![EGe]2 | [^FAd]!<(! !>![FA]2 [FAB] | [Ac][Acd][Ace][Ac^f]!<)! | %67
!ff! [GBg] !>![Gg]2 !>![Gg]- | [Gg] !>![Gg]2 !>![Gg] |!mf! z .!^![cc'].[Bb].[Aa] | %70
 .[Gg].[Ee].[Dd].[Cc] | .[FA] !>!.[Fc]2 .[FA] | [Ec]2 [EG]2 |!mf! z .!^![cc'].[Bb].[Aa] | %74
 .[Gg].[Ee].[Dd].[Cc] | [FA] !>![FAB]2 [EGA^c] |!<(! !>![DFAd]4!<)! |!f! [Ad] !>![A^ce]2 [df] | %78
 [Ad][A^ce] [Adf]2 | [G=c] !>![GBd]2 [Gce] | [Gc][GBd] [Gce]2 | [EG] !>![FA]2 [DFc] | %82
 !>![DGc]2 !>![DGB]2 | !>![EGc]4 | .[EGc] z !>![cegc'] z!D.C.! || %85
V:2
 (3!>!D^C=C (3B,C^C | (3!>!D^C=C (3B,C^C | (3!>!D_ED (3EDE | (3!>!D_ED (3EDE | !>!D z z2 | %5
{A,B,^C} !>!D z{A,,B,,^C,} !>!D, z |{D,E,F,} .G,z.D, z | .G,z.D, z || !>!G,[B,D]D,[B,D] | %9
 G,[B,D]D,[B,D] | ^C,A,A,,A, | !>!A,!>!F,!>!E,!>!A,, | !>!D,[CD]A,[CD] | F,[CD]A,[CD] | %14
 G,[B,D]D,[B,D] | !>![G,,G,]!>![F,,F,]!>![E,,E,]!>![D,,D,] | !>!G,[B,D]D,[B,D] | ^G,[B,D]E,[B,D] | %18
 B,DE,[^G,D] | !>!A,!>!E,!>!C,!>!A,, | !>![D,,D,] !>![D,D]!>![^C,^C]!>![=C,=C] | %21
 !>![B,,B,]!>![F,,F,]!>![G,,G,]!>![E,,E,] | !>![D,,D,][G,B,]D,[^F,C] | !>![G,,G,]2 !>![B,,B,]2 |: %24
 !>!E,2 !>!G,2 | (!>!F,2- F,G,/A,/) | ((!>!B,>C) (!>!B,>C)) | %27
"_C.S.A. International Copyright\nby Enrique ARENAS 1914.\n" ((!>!B,>.G,) E,2) | !>!E,2 !>!G,2 | %29
 (!>!F,2- F,G,/"_Georges PARMENTIER Editeur Paris."A,/) | !>!B,>.C .B,/.A,/.G,/.F,/ |1 %31
 !>!E,2 !>![B,,,B,,]2 :|2 !>!E,2 !>![=D,,=D,]2 || !>!G,[B,D]D,[B,D] | G,[B,D]D,[B,D] | ^C,A,A,,A, | %36
 !>!A,!>!F,!>!E,!>!A,, | !>!D,[CD]A,[CD] | F,[CD]A,[CD] | G,[B,D]D,[B,D] | %40
 !>![G,,G,]!>![F,,F,]!>![E,,E,]!>![D,,D,] | !>!G,[B,D]D,[B,D] | ^G,[B,D]E,[B,D] | B,DE,[^G,D] | %44
 !>!A,!>!E,!>!C,!>!A,, | !>![D,,D,] !>![D,D]!>![^C,^C]!>![=C,=C] | %46
 !>![B,,B,]!>![F,,F,]!>![G,,G,]!>![E,,E,] | !>![D,,D,][G,B,]D,[^F,C] | .[G,,G,] z .[G,,,G,,] z || %49
[K:C]{G,,A,,B,,} C,zB,, z | A,,zG,, z |{G,,A,,B,,} C,zB,, z | A,,zG,, z | %53
{G,,A,,B,,} C, [G,CE]2 [G,CE] | E, [G,C]2 [G,C] | F,[A,C]C,[A,C] | E,[G,C]C,[G,C] | %57
{G,,A,,B,,} C, [G,CE]2 [G,CE] | E, [G,C]2 [G,C] | F,[A,C]C,[A,C] | G,,G,D,C, | G,,G,B,,G, | %62
 B,,G,G,,G, | C,G,E,G, | G,,G,B,,G, | D,[CD]^F,[CD] | A,[CD]D,[CD] | !>![G,,G,]2 !>![F,,F,]2 | %68
 !>![E,,E,]2 !>![D,,D,]2 |{G,,A,,B,,} C, [G,CE]2 [G,CE] | E, [G,C]2 [G,C] | F,[A,C]C,[A,C] | %72
 E,[G,C]C,[G,C] |{G,,A,,B,,} C, [G,CE]2 [G,CE] | E, [G,C]2 [G,C] | F,2 E,2 | D,F,A,D | x4 | x4 | %79
 x4 | x4 | .C,.C.C,.C | .G,,.G,.G,,.G, | .C, z G,.E, | .C, z"_D.C." !>![C,,C,] z || %85
V:3
 x4 | x4 | x4 | x4 | x2{AB^c} d z | x4 | x4 | x4 || x4 | x4 | x4 | x4 | x4 | x4 | x4 | x4 | x4 | %17
 x4 | x4 | x4 | x4 | x4 | x4 | x4 |: x4 | x4 | x4 | x4 | x4 | x4 | x4 |1 x4 :|2 x4 || x4 | x4 | %35
 x4 | x4 | x4 | x4 | x4 | x4 | x4 | x4 | x4 | x4 | x4 | x4 | x4 | x4 ||[K:C] x4 | x4 | x4 | x4 | %53
 x4 | x4 | x4 | x4 | x4 | x4 | x4 | x4 | x4 | x4 | x4 | x4 | x4 | x4 | x4 | x4 | x4 | x4 | x4 | %72
 x4 | x4 | x4 | x4 | x4 | F [EG]2 [DFA] | F[EG] [DF]2 | E [DF]2 [CE] | E[DF] [CE]2 | x4 | x4 | x4 | %84
 x4 || %85

